src/components/Icon/svg-icon/main/calendar.svg

<svg xmlns="http://www.w3.org/2000/svg" width="24" height="24"><path fill="#677078" d="M17 13h-5v5h5v-5zM16 2v2H8V2H6v2H3.01L3 22h18V4h-3V2h-2zm3 18H5V9h14v11z"/></svg>

<svg xmlns="http://www.w3.org/2000/svg" width="24" height="24" viewBox="0 0 24 24">
  <path fill="#677078" d="M17,13 L12,13 L12,18 L17,18 L17,13 Z M16,2 L16,4 L8,4 L8,2 L6,2 L6,4 L3.01,4 L3,22 L21,22 L21,4 L18,4 L18,2 L16,2 Z M19,20 L5,20 L5,9 L19,9 L19,20 Z"/>
</svg>
